icons/glyphs/glyph-epub-book.svg

<?xml version="1.0" encoding="UTF-8" standalone="no"?><svg height="16" viewBox="0 0 4.2333333 4.2333333" width="16" xmlns="http://www.w3.org/2000/svg"><sodipodi:namedview/><metadata><rdf:RDF><cc:Work><dc:format>image/svg+xml</dc:format><dc:type/><dc:title/></cc:Work></rdf:RDF></metadata><path d="m2.1173402 3.4469258-1.3308369-1.3310288 1.3308369-1.32987425.443933.44297075-.887866.8869035.443933.4441253 1.3308361-1.3310288-1.1603442-1.15842035c-.094098-.094098-.2482333-.094098-.3423307 0l-1.8740624 1.87425475c-.095252.094098-.095252.248233 0 .3436776l1.8740624 1.8742547c.094097.094098.2482325.094098.3423307 0l1.8740622-1.8742547c.095252-.095252.095252-.2493875 0-.3436776l-.2717094-.2717091zm0 0" fill="#d0d0d0" stroke-width=".192429"/></svg>

<?xml version="1.0" encoding="UTF-8" standalone="no"?>
<!-- Created with Inkscape (http://www.inkscape.org/) -->

<svg
     xmlns:dc="http://purl.org/dc/elements/1.1/"
     xmlns:cc="http://creativecommons.org/ns#"
     xmlns:rdf="http://www.w3.org/1999/02/22-rdf-syntax-ns#"
     xmlns:svg="http://www.w3.org/2000/svg"
     xmlns="http://www.w3.org/2000/svg"
     xmlns:sodipodi="http://sodipodi.sourceforge.net/DTD/sodipodi-0.dtd"
     xmlns:inkscape="http://www.inkscape.org/namespaces/inkscape"
     width="16"
     height="16"
     viewBox="0 0 4.2333333 4.2333333"
     version="1.1"
     id="svg8"
     inkscape:version="0.92+devel (fa9b7f7a5b, 2017-07-19, custom)"
     sodipodi:docname="glyph-epub-book.svg">
    <defs
         id="defs2">
        <linearGradient
             gradientTransform="translate(518,82)"
             x2="0"
             gradientUnits="userSpaceOnUse"
             y2="336.36"
             y1="392.36"
             id="a">
            <stop
                 id="stop6"
                 stop-opacity="0"
                 stop-color="#ffffff" />
            <stop
                 id="stop8"
                 stop-opacity=".2"
                 stop-color="#ffffff"
                 offset="1" />
        </linearGradient>
        <path
             d="m542 417.36v58h44v-58h-14z"
             color="#000000"
             color-interpolation="sRGB"
             id="b"
             text-rendering="auto"
             image-rendering="auto"
             shape-rendering="auto"
             color-interpolation-filters="linearRGB"
             color-rendering="auto" />
    </defs>
    <sodipodi:namedview
         id="base"
         pagecolor="#002466"
         bordercolor="#ffffff"
         borderopacity="0.38039216"
         inkscape:pageopacity="1"
         inkscape:pageshadow="2"
         inkscape:zoom="10.137867"
         inkscape:cx="39.679867"
         inkscape:cy="27.302424"
         inkscape:document-units="px"
         inkscape:current-layer="svg8"
         inkscape:document-rotation="0"
         showgrid="false"
         inkscape:showpageshadow="false"
         borderlayer="true"
         inkscape:window-width="1920"
         inkscape:window-height="1051"
         inkscape:window-x="0"
         inkscape:window-y="0"
         inkscape:window-maximized="1"
         units="px" />
    <metadata
         id="metadata5">
        <rdf:RDF>
            <cc:Work
                 rdf:about="">
                <dc:format>image/svg+xml</dc:format>
                <dc:type
                     rdf:resource="http://purl.org/dc/dcmitype/StillImage" />
                <dc:title></dc:title>
            </cc:Work>
        </rdf:RDF>
    </metadata>
    <path
         style="color:#000000;color-interpolation:sRGB;color-interpolation-filters:linearRGB;fill:#d0d0d0;stroke-width:0.19242862;color-rendering:auto;image-rendering:auto;shape-rendering:auto;text-rendering:auto;opacity:1"
         id="path26"
         d="M 2.1173402,3.4469258 0.7865033,2.115897 2.1173402,0.78602275 2.5612732,1.2289935 1.6734072,2.115897 2.1173402,2.5600223 3.4481763,1.2289935 2.2878321,0.07057315 c -0.094098,-0.094098 -0.2482333,-0.094098 -0.3423307,0 L 0.071439,1.9448279 c -0.095252,0.094098 -0.095252,0.248233 0,0.3436776 l 1.8740624,1.8742547 c 0.094097,0.094098 0.2482325,0.094098 0.3423307,0 L 4.1618943,2.2885055 c 0.095252,-0.095252 0.095252,-0.2493875 0,-0.3436776 L 3.8901849,1.6731188 Z m 0,0"
         fill="#ffffff"
         opacity=".75"
         inkscape:connector-curvature="0"
         inkscape:label="#" />
</svg>
